Stemford/img/sections/tehnology/icon/gameboy.svg

<svg width="33" height="45" viewBox="0 0 33 45" fill="none" xmlns="http://www.w3.org/2000/svg">
<rect x="17" width="16" height="16.8" fill="#FF843F"/>
<path d="M22.4545 45H3.54545C1.59545 45 0 43.3969 0 41.4375V10.5625C0 8.60312 1.59545 7 3.54545 7H22.4545C24.4045 7 26 8.60312 26 10.5625V41.4375C26 43.3969 24.4045 45 22.4545 45ZM3.54545 9.375C2.89545 9.375 2.36364 9.90937 2.36364 10.5625V41.4375C2.36364 42.0906 2.89545 42.625 3.54545 42.625H22.4545C23.1045 42.625 23.6364 42.0906 23.6364 41.4375V10.5625C23.6364 9.90937 23.1045 9.375 22.4545 9.375H3.54545Z" fill="#200B73"/>
<path d="M11.8182 35.5H4.72729V37.875H11.8182V35.5Z" fill="#200B73"/>
<path d="M9.45458 33.125H7.09094V40.25H9.45458V33.125Z" fill="#200B73"/>
<path d="M20.0909 36.6875C19.7718 36.6875 19.4763 36.5688 19.2518 36.3431C19.0272 36.1175 18.9091 35.8206 18.9091 35.5C18.9091 35.3456 18.9445 35.1913 19.0036 35.0488C19.0627 34.9063 19.1454 34.7756 19.2518 34.6569C19.7009 34.2175 20.4927 34.2175 20.93 34.6569C21.0363 34.7756 21.1191 34.9063 21.1781 35.0488C21.2372 35.1913 21.2727 35.3456 21.2727 35.5C21.2727 35.8206 21.1545 36.1175 20.93 36.3431C20.7054 36.5688 20.41 36.6875 20.0909 36.6875Z" fill="#200B73"/>
<path d="M17.7272 39.0625C17.5736 39.0625 17.42 39.0388 17.2781 38.9794C17.1363 38.9081 17.0063 38.825 16.8881 38.7181C16.7818 38.5994 16.699 38.4806 16.64 38.3263C16.5809 38.1838 16.5454 38.0294 16.5454 37.875C16.5454 37.7206 16.5809 37.5663 16.64 37.4238C16.699 37.2813 16.7818 37.1506 16.8881 37.0319C16.9472 36.9844 17.0063 36.9369 17.0654 36.8894C17.1363 36.8419 17.2072 36.8063 17.2781 36.7825C17.349 36.7469 17.42 36.7231 17.5027 36.7113C17.6445 36.6756 17.81 36.6756 17.9636 36.7113C18.0345 36.7231 18.1054 36.7469 18.1763 36.7825C18.2472 36.8063 18.3181 36.8419 18.389 36.8894C18.4481 36.9369 18.5072 36.9844 18.5663 37.0319C18.6727 37.1506 18.7554 37.2813 18.8145 37.4238C18.8736 37.5663 18.909 37.7206 18.909 37.875C18.909 38.0294 18.8736 38.1838 18.8145 38.3263C18.7554 38.4688 18.6727 38.5994 18.5663 38.7181C18.3418 38.9438 18.0463 39.0625 17.7272 39.0625Z" fill="#200B73"/>
<path d="M21.2727 30.75H4.72729V11.75H21.2727V30.75ZM7.09093 28.375H18.9091V14.125H7.09093V28.375Z" fill="#200B73"/>
</svg>

<svg width="33" height="45" fill="none" xmlns="http://www.w3.org/2000/svg"><path fill="#FF843F" d="M17 0h16v16.8H17z"/><path d="M22.454 45H3.546C1.595 45 0 43.397 0 41.437V10.564C0 8.602 1.595 7 3.545 7h18.91C24.404 7 26 8.603 26 10.563v30.874C26 43.398 24.404 45 22.454 45zM3.546 9.375c-.65 0-1.181.534-1.181 1.188v30.874c0 .654.531 1.188 1.181 1.188h18.91c.65 0 1.181-.534 1.181-1.188V10.564c0-.654-.531-1.188-1.181-1.188H3.544z" fill="#200B73"/><path d="M11.818 35.5h-7.09v2.375h7.09V35.5z" fill="#200B73"/><path d="M9.455 33.125H7.09v7.125h2.364v-7.125zm10.635 3.563a1.178 1.178 0 01-1.087-1.639c.06-.143.142-.273.249-.392.449-.44 1.24-.44 1.678 0 .106.119.19.25.248.392a1.178 1.178 0 01-.248 1.294c-.225.226-.52.344-.84.344zm-2.363 2.375a1.16 1.16 0 01-.449-.084 1.728 1.728 0 01-.39-.26 1.226 1.226 0 01-.248-.393 1.187 1.187 0 01-.095-.451c0-.154.036-.309.095-.451a1.37 1.37 0 01.248-.392l.177-.143a.895.895 0 01.213-.107.71.71 0 01.225-.07.993.993 0 01.46 0 .729.729 0 01.213.07c.071.024.142.06.213.107l.177.143c.107.119.19.25.248.392.06.142.095.297.095.451 0 .154-.035.309-.095.451a1.37 1.37 0 01-.248.392c-.224.226-.52.344-.839.344zm3.546-8.313H4.727v-19h16.546v19zM7.09 28.375h11.818v-14.25H7.091v14.25z" fill="#200B73"/></svg>
